dist/upp/assets/img/submenu-2.svg

<svg width="33" height="32" viewBox="0 0 33 32" fill="none" xmlns="http://www.w3.org/2000/svg">
<path d="M28.6926 26.9717H4.30746C2.73689 26.9717 1.41431 25.7112 1.41431 24.0305V23.2742C1.41431 23.0221 1.66229 22.77 1.91028 22.77H31.0898C31.3378 22.77 31.5857 23.0221 31.5857 23.2742V24.0305C31.5857 25.6272 30.2632 26.9717 28.6926 26.9717ZM2.40624 23.7784V24.0305C2.40624 25.0389 3.23286 25.8793 4.2248 25.8793H28.6926C29.6845 25.8793 30.5111 25.0389 30.5111 24.0305V23.7784H2.40624Z" fill="#090909"/>
<path d="M30.2631 23.7781H2.65417C2.40619 23.7781 2.1582 23.526 2.1582 23.2739V5.12266C2.1582 4.53443 2.65417 4.11426 3.15014 4.11426H29.7671C30.3458 4.11426 30.7591 4.53443 30.7591 5.12266V23.2739C30.7591 23.6101 30.5937 23.7781 30.2631 23.7781ZM3.15014 22.7697H29.7671V5.12266H3.15014V22.7697Z" fill="#090909"/>
<path d="M27.7005 21.6775H5.21655C4.63792 21.6775 4.22461 21.2573 4.22461 20.6691V7.30772C4.22461 6.71948 4.63792 6.29932 5.21655 6.29932H27.7005C28.2791 6.29932 28.6924 6.71948 28.6924 7.30772V20.6691C28.6924 21.1733 28.2791 21.6775 27.7005 21.6775ZM5.21655 7.30772V20.6691H27.7005V7.30772H5.21655Z" fill="#090909"/>
</svg>

<svg width="33" height="32" fill="none" xmlns="http://www.w3.org/2000/svg"><path d="M28.693 26.972H4.307c-1.57 0-2.893-1.26-2.893-2.942v-.756c0-.252.248-.504.496-.504h29.18c.248 0 .496.252.496.504v.756c0 1.597-1.323 2.942-2.893 2.942zM2.406 23.778v.253c0 1.008.827 1.848 1.819 1.848h24.468c.991 0 1.818-.84 1.818-1.849v-.252H2.406z" fill="#090909"/><path d="M30.263 23.778H2.654c-.248 0-.496-.252-.496-.504V5.123c0-.589.496-1.009.992-1.009h26.617c.579 0 .992.42.992 1.009v18.15c0 .337-.165.505-.496.505zM3.15 22.77h26.617V5.123H3.15V22.77z" fill="#090909"/><path d="M27.7 21.677H5.218c-.58 0-.992-.42-.992-1.008V7.308c0-.589.413-1.009.992-1.009H27.7c.58 0 .992.42.992 1.009v13.361c0 .504-.413 1.008-.991 1.008zM5.218 7.307V20.67H27.7V7.308H5.216z" fill="#090909"/></svg>
